src/raw/door/icon_24.svg

<svg width="24" height="24" viewBox="0 0 24 24" fill="none" xmlns="http://www.w3.org/2000/svg">
<path d="M16.0674 3H20.4997C20.8975 3 21.279 3.15804 21.5603 3.43934C21.8416 3.72064 21.9997 4.10218 21.9997 4.5V19.5C21.9997 19.8978 21.8416 20.2794 21.5603 20.5607C21.279 20.842 20.8975 21 20.4997 21H16.0674" stroke="#71717A" stroke-width="1.5" stroke-linecap="round" stroke-linejoin="round"/>
<path d="M12.1032 22.9926L2.67467 21.7352C2.48741 21.7105 2.31604 21.6234 2.19207 21.4901C2.06811 21.3568 1.9999 21.1862 2 21.0097V3.90556C1.99985 3.73763 2.06146 3.57474 2.17454 3.44411C2.28761 3.31348 2.4453 3.22303 2.62124 3.18788L12.0498 1.01625C12.1644 0.99335 12.283 0.99467 12.397 1.02011C12.511 1.04555 12.6175 1.09447 12.7086 1.16328C12.7997 1.23209 12.8731 1.31905 12.9235 1.41779C12.974 1.51653 13.0001 1.62455 13 1.73393V22.2671C12.9999 22.3722 12.9757 22.4759 12.9289 22.5715C12.8822 22.667 12.814 22.752 12.7289 22.8208C12.6439 22.8896 12.544 22.9405 12.4361 22.9702C12.3281 22.9998 12.2146 23.0075 12.1032 22.9926Z" stroke="#71717A" stroke-width="1.5" stroke-linecap="round" stroke-linejoin="round"/>
<path d="M8.5 12H10" stroke="#71717A" stroke-width="1.5" stroke-linecap="round" stroke-linejoin="round"/>
</svg>

<svg xmlns="http://www.w3.org/2000/svg" width="24" height="24" fill="none"><path stroke="#71717A" stroke-linecap="round" stroke-linejoin="round" stroke-width="1.5" d="M16.068 3H20.5A1.5 1.5 0 0 1 22 4.5v15a1.5 1.5 0 0 1-1.5 1.5h-4.432M12.103 22.993l-9.428-1.258a.802.802 0 0 1-.483-.245.704.704 0 0 1-.192-.48V3.906c0-.168.061-.331.175-.462a.796.796 0 0 1 .446-.256l9.429-2.172a.84.84 0 0 1 .659.147.743.743 0 0 1 .215.255c.05.099.076.207.076.316v20.533a.693.693 0 0 1-.071.305.738.738 0 0 1-.2.249.84.84 0 0 1-.626.172ZM8.5 12H10"/></svg>
